Papirus/16x16/apps/borderlands-the-pre-sequel.svg

<svg width="16" height="16" version="1" xmlns="http://www.w3.org/2000/svg">
 <rect transform="scale(-1,1)" x="-16" width="16" height="16" rx="8" ry="8" style="fill:#5f89c9"/>
 <path d="m6.7551798 2.1319567c0.6334002-0.1357556 1.2952123-0.1674592 1.9417188-0.0918866 0.9381596 0.109652 1.8465454 0.4445603 2.6350034 0.9713462 0.779417 0.5207011 1.419441 1.207165 1.880685 2.0163051 0.176722 0.31 0.327411 0.640754 0.447735 0.9836336 0.08411 0.2399193 0.160904 0.5175002 0.213527 0.7699426 0.273569 1.3151716 0.09971 2.6714283-0.497362 3.8772064-0.04313 0.08706-0.04442 0.0895-0.04821 0.08739-0.0041-0.0019-0.02369-0.02987-0.301494-0.421968-1.04625-1.4767018-2.459332-3.4908957-4.1166584-5.865997-0.5050854-0.7237995-0.6450856-0.9240202-0.6704318-0.9619342-0.1571932-0.2352213-0.3180021-0.4080553-0.4989463-0.5359348-0.043413-0.030611-0.1498308-0.091467-0.1970943-0.1126315-0.2177448-0.097555-0.4482051-0.12626-0.7067348-0.087113-0.071445 0.010815-0.1171387 0.020636-0.1985129 0.042437-0.081374 0.021795-0.125877 0.036202-0.1931415 0.062478-0.2434738 0.095322-0.4294023 0.2355726-0.56915 0.4288907-0.03034 0.04197-0.09214 0.1478707-0.114357 0.1960615-0.09275 0.2011942-0.14553 0.4311268-0.164059 0.713537-0.0073 0.1095974-0.109316 1.2783823-0.186733 2.138999-0.120527 1.3397777-0.23686 2.5793847-0.435305 4.6325803-0.100358 1.038034-0.160177 1.662703-0.186917 1.948555-0.0062 0.06722-0.01202 0.12394-0.01282 0.125894-0.0024 0.0048-0.0038 0.0043-0.05147-0.02632-0.288716-0.185686-0.577934-0.410979-0.833856-0.649605-0.659792-0.615169-1.167479-1.371655-1.490711-2.221028-0.07948-0.2089735-0.132399-0.3737085-0.193402-0.6013119-0.03701-0.1380824-0.05233-0.210838-0.07853-0.3277243-0.239963-1.142169-0.141176-2.3222661 0.285984-3.4123787 0.17401-0.4439949 0.406543-0.8760615 0.681939-1.2669088 0.74599-1.0586536 1.802906-1.8413998 3.0292234-2.2430159 0.1958666-0.0641275 0.4265166-0.1260056 0.6300778-0.1694959zm0.1638393 1.5975018c0.4537296-0.047147 0.7444032 0.273337 0.9924825 0.6106921 1.174558 2.0337002 2.4266084 4.2362108 3.6972044 6.5032914 0.36537 0.651906 0.72344 1.293341 0.724766 1.298288 0.0011 4e-3 -0.01458 0.02154-0.07696 0.08436-0.716073 0.721833-1.60184 1.246911-2.5804846 1.530561-0.1223103 0.03533-0.1200127 0.03459-0.2352595 0.06302-0.266311 0.0654-0.4992594 0.108722-0.7542885 0.139036-0.7581218 0.09011-1.5188694 0.03255-2.2578201-0.170766-0.029303-0.0081-0.05392-0.01628-0.054844-0.01754-6.375e-4 -0.0024-0.00497-0.197542-0.013654-0.831361-0.033896-2.47453-0.05287-5.0363804-0.055669-7.4936208 0.039968-0.7402693 0.00424-1.5111377 0.6145318-1.7159645z" style="fill:#f7b400"/>
</svg>

<svg xmlns="http://www.w3.org/2000/svg" width="16" height="16" version="1">
 <circle style="fill:#5f89c9" cx="8" cy="8" r="8"/>
 <path style="fill:#f7b400" d="M 6.7552,2.132 C 7.3886,1.9962 8.0504,1.9645 8.6969,2.0401 9.6351,2.1497 10.543,2.4846 11.332,3.0114 12.111,3.5321 12.745,4.222 13.213,5.0277 13.534,5.5836 13.722,6.0575 13.874,6.7813 14.147,8.0965 13.974,9.4527 13.376,10.659 13.333,10.746 13.332,10.748 13.328,10.746 13.324,10.744 13.305,10.716 13.027,10.324 11.981,8.8472 10.567,6.833 8.9101,4.4579 8.405,3.7341 8.265,3.5339 8.2397,3.496 8.0825,3.2608 7.9217,3.0879 7.7407,2.9601 7.6973,2.9294 7.5909,2.8686 7.5437,2.8474 7.3259,2.7499 7.0954,2.7212 6.8369,2.7603 6.695,2.7818 6.5449,2.8264 6.4453,2.8652 6.2018,2.9606 6.0159,3.1008 5.8761,3.2941 5.8458,3.3361 5.784,3.442 5.7618,3.4902 5.669,3.6914 5.6162,3.9213 5.5977,4.2037 L 4.7759,13.05 4.7245,13.023 C 4.4357,12.838 4.1465,12.612 3.8906,12.374 3.2308,11.759 2.7231,11.002 2.3999,10.153 2.2694,9.8096 2.1924,9.5109 2.128,9.2238 1.888,8.0816 1.9868,6.9015 2.4139,5.8114 2.5879,5.3674 2.8205,4.9353 3.0959,4.5445 3.8419,3.4858 4.8988,2.7031 6.1251,2.3015 6.321,2.2373 6.5516,2.1754 6.7552,2.132 Z M 6.919,3.7295 C 7.3727,3.6823 7.6634,4.0028 7.9115,4.3402 L 12.333,12.142 12.257,12.226 C 11.54,12.948 10.655,13.473 9.676,13.757 9.3603,13.847 9.1204,13.906 8.6865,13.959 7.9284,14.049 7.1676,13.991 6.4287,13.788 L 6.3738,13.77 6.3045,5.4454 C 6.3445,4.7051 6.3087,3.9343 6.919,3.7295 Z"/>
</svg>
